discord.svg

<svg viewBox="0 0 24 24" version="1.1" xmlns="http://www.w3.org/2000/svg" xmlns:xlink="http://www.w3.org/1999/xlink">
    <title>Discord</title>
        <path d="M20.3302852,1.50747198 C18.7534601,0.793090808 17.0888254,0.286284803 15.378903,0 C15.1449168,0.413925727 14.9332015,0.839799904 14.7446429,1.2758406 C12.9232467,1.00423782 11.0710054,1.00423782 9.24960919,1.2758406 C9.0609519,0.839844793 8.84923909,0.413975701 8.61534903,0 C6.90433127,0.28870239 5.23860083,0.796711496 3.66019154,1.51120797 C0.526644333,6.09900374 -0.322811236,10.5728518 0.101916548,14.983188 L0.101916548,14.983188 C1.93700043,16.3248909 3.99098264,17.3452797 6.17458003,18 C6.66626098,17.3456026 7.10133746,16.6513652 7.47519089,15.9246575 C6.7651097,15.6622161 6.0797537,15.3384258 5.42705913,14.9570361 C5.59883792,14.8337484 5.76684135,14.7067248 5.92918175,14.5834371 C9.77437591,16.3728833 14.2255392,16.3728833 18.0707334,14.5834371 C18.2349614,14.7160648 18.4029649,14.8430884 18.572856,14.9570361 C17.9188999,15.3390437 17.2322908,15.6634542 16.5209489,15.9265255 C16.8943439,16.6528968 17.3294466,17.346551 17.8215597,18 C20.007021,17.3479068 22.0625792,16.3280014 23.8979986,14.985056 L23.8979986,14.985056 C24.3963458,9.87048568 23.0466553,5.4377335 20.3302852,1.50747198 Z M8.01317942,12.2708593 C6.82960466,12.2708593 5.85178691,11.2079701 5.85178691,9.9003736 C5.85178691,8.59277709 6.79562643,7.52054795 8.00940406,7.52054795 C9.22318168,7.52054795 10.1934487,8.59277709 10.1726842,9.9003736 C10.1519198,11.2079701 9.21940632,12.2708593 8.01317942,12.2708593 Z M15.9867357,12.2708593 C14.8012733,12.2708593 13.8272309,11.2079701 13.8272309,9.9003736 C13.8272309,8.59277709 14.7710704,7.52054795 15.9867357,7.52054795 C17.202401,7.52054795 18.1651173,8.59277709 18.1443528,9.9003736 C18.1235884,11.2079701 17.1929626,12.2708593 15.9867357,12.2708593 Z" fill="#5865F2"></path>
</svg>

<svg viewBox="0 0 24 24" xmlns="http://www.w3.org/2000/svg"><path d="M20.33 1.507A20.003 20.003 0 0 0 15.38 0c-.234.414-.446.84-.634 1.276a18.631 18.631 0 0 0-5.495 0A13.46 13.46 0 0 0 8.615 0 20.143 20.143 0 0 0 3.66 1.511C.527 6.1-.323 10.573.102 14.983A20.04 20.04 0 0 0 6.175 18a14.49 14.49 0 0 0 1.3-2.075 12.976 12.976 0 0 1-2.048-.968c.172-.123.34-.25.502-.374a14.401 14.401 0 0 0 12.142 0c.164.133.332.26.502.374-.654.382-1.34.706-2.052.97.373.726.808 1.42 1.3 2.073a19.95 19.95 0 0 0 6.077-3.015c.498-5.115-.851-9.547-3.568-13.478ZM8.013 12.271c-1.183 0-2.161-1.063-2.161-2.37 0-1.308.944-2.38 2.157-2.38 1.214 0 2.184 1.072 2.164 2.38-.021 1.307-.954 2.37-2.16 2.37Zm7.974 0c-1.186 0-2.16-1.063-2.16-2.37 0-1.308.944-2.38 2.16-2.38 1.215 0 2.178 1.072 2.157 2.38-.02 1.307-.951 2.37-2.157 2.37Z" fill="#5865F2"/></svg>
